!!! OTL: Literature104
!!! Chapter: 5
!!! Section: III
!!! Page: 369
!!! Mode: 
!!! Encoder: DJB
**kern
*staff1
*I"Piano
=1-
*clefC3
*k[f#c#g#d#]
*E:
*M3/4
4e\
4g#\
4b\
=2
4g#\
4r
8.b\L
16b\Jk
=3
8b\
4d#\
8cc#\
8b\L
8a\J
=4
8.g#\L
16f#\Jk
4e\
8r
8e\
=5
8.a\L
16g#\Jk
4f#\
8r
8f#\
=6
4b\
4g#\
8r
8e\
=7
8cc#\L
[8b\J
16b\LL]
16a#\
16f#\
16g#\JJ
16an\LL
16b\
16cc#\
16dd#\JJ
=8
!!linebreak:original
[2ee\
8ee\]
8r
==
*-
